X:1
T:G minor Oliver Holden, 1803
T:Isaac Watts, 1719 (Psalm 89)   88. 88. 88.
T:Euphrates No copyright. Transcribed from The Charlestown Collection, 1803.
%%score [ 1 2 3 4 ]
L:1/8
M:4/4
K:Bb
V:1 treble nm="Treble" snm="Tr."
V:2 treble nm="Counter" snm="C."
V:3 treble-8 nm="Tenor" snm="T."
V:4 bass nm="Bass" snm="B."
V:1
 G4 B2 c2 | d4 d4 | d6 B2 | d8 | B4 B2 B2 | B4 G4 | A4 A4 | B8 | d4 d2 d2 | d4 B4 | (A2 G2) ^F4 | %11
w: |||||||||||
 G8 | d4 c2 c2 | c6 d2 | e4 c4 | B4 d4 | G4 G4 | G6 G2 | B4 G4 | !fermata!A4 z4 | z8 | z8 | z8 | %23
w: |Who can se-|cure his|vi- tal|breath A-|gainst the|bold de-|mands of|death?||||
 z4 B4 | B4 (B2 A2) | G4 B4 | d4 d4 | d8 |] %28
w: |||||
V:2
 B4 B2 A2 | D4 D4 | D6 G2 | A8 | E4 E2 E2 | G4 B4 | A4 D4 | G8 | ^F4 F2 F2 | G4 B4 | (A2 G2) A4 | %11
w: 1.~Think, migh- ty|God, on|fee- ble|man;|How few his|hours! How|short his|span!|Short from the|cra- dle|to * the|
 G8 | G4 A2 A2 | F6 D2 | E4 F4 | G4 z4 | z8 | z8 | z8 | z8 | z8 | z4 D4 | E4 (D2 ^C2) | %23
w: grave;|Who can se-|cure his|vi- tal|breath||||||or|power to *|
 !fermata!D4 G4 | B4 (G2 A2) | (B2 A2) (G2 F2) | G4 A4 | G8 |] %28
w: save? With|skill to *|fly, * or *|power to|save?|
V:3
 d4 G2 A2 | B4 B4 | A6 G2 | A8 | G4 G2 G2 | d4 B4 | D4 ^F4 | G8 | A4 A2 A2 | B4 d4 | (c2 B2) A4 | %11
w: |||||||||||
 G8 | z8 | z8 | z8 | z8 | z8 | z8 | z8 | z4 d4 | (B2 A2) (G2 ^F2) | G4 d4 | e4 (d2 ^c2) | %23
w: ||||||||With|skill * to *|fly, or|power to *|
 !fermata!d4 g4 | e4 (d2 c2) | (d2 ef) (g2 dc) | B4 A4 | G8 |] %28
w: save? *|||||
V:4
 G,4 G,2 D,2 | B,,4 B,,4 | D,6 D,2 | D,8 | E,4 E,2 E,2 | D,4 G,4 | D,4 D,4 | G,8 | D,4 D,2 D,2 | %9
w: |||||||||
 B,,4 G,,4 | C,4 D,4 | G,8 | B,4 F,2 F,2 | F,6 D,2 | G,4 F,4 | B,4 D,4 | E,4 E,4 | C,6 D,2 | %18
w: |||Who can se-|cure his|vi- tal|breath A-|gainst the|bold de-|
 G,4 G,4 | !fermata!D,4 B,,4 | D,4 D,4 | G,4 G,4 | ^F,4 (G,2 A,2) | !fermata!D,4 E,4 | %24
w: mands of|death? *|||||
 (E,2 F,2) (G,2 A,2) | B,4 G,4 | D,4 D,4 | G,8 |] %28
w: ||||

